images/Services/Apple.svg

<?xml-stylesheet type="text/css" href="./css/style.min.css"?>
<svg width="97" height="97" viewBox="0 0 97 97"  xmlns="http://www.w3.org/2000/svg">
<g clip-path="url(#clip0)">
<path d="M10.9904 39.9417C14.7576 32.2359 20.7662 27.2983 27.9097 26.0388C32.6422 25.2037 38.5302 25.5538 44.4881 27.0242C44.921 27.131 45.3581 27.2184 45.7978 27.29C44.5539 23.2035 41.0674 15.0085 31.9429 7.95345C31.0307 7.24812 30.8631 5.93673 31.5684 5.02451C32.2741 4.11229 33.5849 3.94482 34.4973 4.64996C38.7055 7.90363 41.8271 11.3761 44.1395 14.6584C44.6986 11.5517 45.9617 7.83391 48.7548 5.04042C54.4367 -0.641276 63.9459 0.00627497 64.3481 0.0367769C65.3772 0.114453 66.1953 0.932511 66.273 1.96162C66.3035 2.36383 66.9508 11.8729 61.2691 17.5548C57.4392 21.3847 51.8706 22.3384 48.5241 22.544C49.3645 24.548 49.8743 26.234 50.1751 27.4249C50.9619 27.3464 51.7434 27.2138 52.5119 27.0242C58.4698 25.554 64.3576 25.2043 69.0903 26.0388C76.2338 27.2983 82.2425 32.2357 86.0096 39.9417C89.668 47.4256 90.7782 56.6785 89.1352 65.9962C87.4923 75.3141 83.2845 83.6294 77.287 89.4105C72.1337 94.378 66.1731 97 60.19 97C59.0033 97 57.8156 96.897 56.6332 96.6886C56.08 96.591 55.5064 96.4614 54.928 96.3032C50.7223 95.1517 46.2766 95.1515 42.0715 96.3034C41.4935 96.4614 40.92 96.5912 40.3672 96.6884C39.1844 96.897 37.9971 97 36.81 97C30.8274 96.9996 24.8659 94.3776 19.713 89.4107C13.7155 83.6298 9.50771 75.3143 7.86478 65.9964C6.22184 56.6785 7.33165 47.4256 10.9904 39.9417ZM58.3161 14.6017C61.3174 11.6006 61.9811 6.84572 62.105 4.20456C59.4623 4.32884 54.7082 4.9923 51.7076 7.99324C48.7065 10.9944 48.0427 15.7493 47.9188 18.3904C50.5614 18.2663 55.3156 17.6027 58.3161 14.6017ZM11.9769 65.2714C15.0119 82.482 27.4237 94.7308 39.6425 92.5757C40.0692 92.5007 40.5157 92.3995 40.9689 92.2755C45.8954 90.926 51.1038 90.9262 56.0308 92.2753C56.4845 92.3995 56.931 92.5005 57.3579 92.5757C69.5772 94.73 81.9881 82.4817 85.0231 65.2712C86.514 56.8164 85.532 48.472 82.2583 41.7758C79.0931 35.3012 74.1591 31.173 68.3653 30.1511C66.9425 29.9003 65.3644 29.7768 63.6877 29.7768C60.5176 29.7768 56.9964 30.2187 53.5124 31.0783C51.8829 31.4805 50.2074 31.6823 48.5316 31.6849C48.5203 31.6851 48.5089 31.6872 48.4975 31.6872C48.4767 31.6872 48.456 31.6849 48.4354 31.6844C46.7707 31.6794 45.1067 31.4779 43.488 31.0785C38.161 29.7639 32.7474 29.4259 28.6349 30.1513C22.8412 31.1732 17.9073 35.3014 14.7419 41.776C11.4684 48.4722 10.4862 56.8166 11.9769 65.2714Z" fill="#87AD3B"/>
</g>
<defs>
<clipPath id="clip0">
<rect width="97" height="97" fill="white" transform="matrix(-1 0 0 1 97 0)"/>
</clipPath>
</defs>
</svg>

<?xml-stylesheet type="text/css" href="/css/style.min.css"?><svg viewBox="0 0 97 97" xmlns="http://www.w3.org/2000/svg"><g clip-path="url(#clip0)"><path d="M10.99 39.942c3.768-7.706 9.776-12.644 16.92-13.903 4.732-.835 10.62-.485 16.578.985.433.107.87.194 1.31.266-1.244-4.087-4.73-12.281-13.855-19.337a2.088 2.088 0 012.554-3.303c4.209 3.254 7.33 6.726 9.642 10.008.56-3.106 1.823-6.824 4.616-9.618C54.437-.64 63.945.006 64.348.037a2.088 2.088 0 011.925 1.925c.03.402.678 9.91-5.004 15.593-3.83 3.83-9.398 4.783-12.745 4.989.84 2.004 1.35 3.69 1.651 4.88a16.663 16.663 0 002.337-.4c5.958-1.47 11.846-1.82 16.578-.985 7.144 1.26 13.153 6.197 16.92 13.903 3.658 7.484 4.768 16.736 3.125 26.054-1.643 9.318-5.85 17.633-11.848 23.415C72.134 94.377 66.173 97 60.19 97a20.47 20.47 0 01-3.557-.311 19.028 19.028 0 01-1.705-.386 24.352 24.352 0 00-12.856 0c-.579.158-1.152.288-1.705.385-1.183.209-2.37.312-3.557.312-5.983 0-11.944-2.622-17.097-7.59-5.998-5.78-10.205-14.096-11.848-23.414-1.643-9.317-.533-18.57 3.125-26.054zm47.326-25.34c3.001-3.001 3.665-7.756 3.789-10.397-2.643.124-7.397.787-10.397 3.788-3.002 3.001-3.665 7.756-3.79 10.397 2.643-.124 7.398-.787 10.398-3.788zm-46.34 50.67c3.036 17.21 15.448 29.459 27.666 27.304a14.7 14.7 0 001.327-.3 28.528 28.528 0 0115.062 0c.453.124.9.225 1.327.3 12.22 2.154 24.63-10.094 27.665-27.305 1.491-8.455.509-16.799-2.765-23.495C79.093 35.3 74.16 31.173 68.365 30.15c-1.422-.25-3-.374-4.677-.374-3.17 0-6.692.442-10.176 1.301a20.97 20.97 0 01-4.98.607l-.034.002-.063-.003a20.93 20.93 0 01-4.947-.606c-5.327-1.314-10.74-1.652-14.853-.927-5.794 1.022-10.728 5.15-13.893 11.625-3.274 6.696-4.256 15.04-2.765 23.495z" fill="#87AD3B"/></g><defs><clipPath id="clip0"><path fill="#fff" transform="matrix(-1 0 0 1 97 0)" d="M0 0h97v97H0z"/></clipPath></defs></svg>
